X: 39415
T: Tar Road To Sligo, The
R: jig
M: 6/8
K: Dmajor
|:e|fdB Bcd|ecA BAG|FGA ABc|dcd efg|
fdB Bcd|ecA BAG|FGA Aag|fdc d2:|
|:B|Adf Adf|gfg efg|afd dcd|Bed cBA|
[1 Adf Adf|gfg efg|afd bge|edc d2:|
[2 fdB gec|~a3 bge|~a3 bge|edc d2||

